X: 29550
T: Noel Geeson's Air
R: jig
M: 6/8
K: Gmajor
|:D|B>cd G2D|E2C D2D|B>cd G2D|c2B B<Ad|
B>cd G2D|E2C D2B|c>BA d2G|A2D G2:|
|:d|e>fg d2G|e>dG B2d|g2a b>ag|e2d A2B|
c>BA D2A|B>AG B,2B|c>BA d2G|A2D G2:|

